X: 30556
T: On Your Own Time
R: reel
M: 4/4
K: Dminor
|:FE|"dmin"D2 AG "C"ECCE|"dmin"DCDE FEFG|A2 Ac defd|"C"efed c2 de|
"F"fagf "C"e2 fe|"dmin"dcAF "G"G2 GE|"C"CEGE AEGE|"dmin"DAGE D2:|
|:FE|"F"F2 AG FAcA|"Bb"dAeA "F"f2 ef|"C"g2 gf g2 gf|egdg cdeg|
"F"afca "C"gceg|"dmin"fdAd "amin"ecAc|"dmin"d2 AG "C"ECCE|"dmin"DAGE D2:|

